Adwaita++/apps/16/bluetooth.svg

<svg height="16.033" width="16" xmlns="http://www.w3.org/2000/svg">
  <g fill="#444" transform="translate(-263.0002 -648.99035)">
    <path d="m269.875 649a1.0001 1.0001 0 0 0 -.875 1v3.5625l-1.28125-1.28125a1.016466 1.016466 0 1 0 -1.4375 1.4375l2.71875 2.71875v1.125l-2.71875 2.71875a1.016466 1.016466 0 1 0 1.4375 1.4375l1.28125-1.28125v3.5625a1.0001 1.0001 0 0 0 1.71875.71875l4-4a1.0001 1.0001 0 0 0 0-1.4375l-2.28125-2.28125 2.28125-2.28125a1.0001 1.0001 0 0 0 0-1.4375l-4-4a1.0001 1.0001 0 0 0 -.84375-.28125zm1.125 3.4375 1.5625 1.5625-1.5625 1.5625zm0 6 1.5625 1.5625-1.5625 1.5625z"/>
    <path d="m266 652h1v1h-1z"/>
    <path d="m266 661h1v1h-1z"/>
    <path d="m269 664h1v1h-1z"/>
    <path d="m269 649h1v1h-1z"/>
  </g>
</svg>

<svg xmlns="http://www.w3.org/2000/svg" width="16" height="16.033" version="1.1">
 <title id="title9167">
  Gnome Symbolic Icon Theme
 </title>
 <g id="layer11" transform="translate(-263.0002,-648.99035)">
  <path fill="#444" d="M 269.875,649 A 1.0001,1.0001 0 0 0 269,650 l 0,3.5625 -1.28125,-1.28125 a 1.016466,1.016466 0 1 0 -1.4375,1.4375 L 269,656.4375 l 0,1.125 -2.71875,2.71875 a 1.016466,1.016466 0 1 0 1.4375,1.4375 L 269,660.4375 269,664 a 1.0001,1.0001 0 0 0 1.71875,0.71875 l 4,-4 a 1.0001,1.0001 0 0 0 0,-1.4375 L 272.4375,657 l 2.28125,-2.28125 a 1.0001,1.0001 0 0 0 0,-1.4375 l -4,-4 A 1.0001,1.0001 0 0 0 269.875,649 z M 271,652.4375 272.5625,654 271,655.5625 l 0,-3.125 z m 0,6 1.5625,1.5625 -1.5625,1.5625 0,-3.125 z"/>
  <rect fill="#444" width="1" height="1" x="266" y="652"/>
  <rect fill="#444" width="1" height="1" x="266" y="661"/>
  <rect fill="#444" width="1" height="1" x="269" y="664"/>
  <rect fill="#444" width="1" height="1" x="269" y="649"/>
 </g>
</svg>
